X:275
T:Reel 275
M:4/4
K:Dmix
L:1/8
DG|ADDF ECA,G,|A,DDF GECE|ADEC DCEG|FDEC G2FG|ADEC EDEG|ABAG ABc2|dBcA GECE|FDEC D2|FG|Addc ABcG|Addc  (3ABc Gc|AddB cBcA|EFEF G2FG|Addc ABcA|Adde f2ec|dBcA BGAB|cBcA GECE|
